assets/features/payment-flow/ovo.svg

<svg width="40" height="40" viewBox="0 0 40 40" fill="none" xmlns="http://www.w3.org/2000/svg">
<rect width="40" height="40" rx="8" fill="#4C2A86"/>
<path d="M19.8704 24.5878C19.781 24.5757 19.691 24.5717 19.6017 24.5574C19.1739 24.4886 18.8212 24.2897 18.5456 23.955C18.3334 23.6974 18.1916 23.4012 18.0744 23.0917C17.96 22.7898 17.877 22.478 17.7873 22.1684C17.633 21.6355 17.4788 21.1025 17.3246 20.5696C17.0858 19.7444 16.8471 18.9191 16.6081 18.0941C16.5696 17.9612 16.5163 17.8354 16.426 17.7281C16.3077 17.5875 16.1519 17.5242 15.9728 17.5213C15.6984 17.517 15.4239 17.5192 15.1494 17.5201C15.1173 17.5202 15.1053 17.5159 15.1058 17.4789C15.1081 17.2781 15.1076 17.0771 15.1061 16.8762C15.1059 16.8447 15.1148 16.8372 15.1455 16.8374C15.4502 16.8385 15.7549 16.8379 16.0596 16.8382C16.2617 16.8384 16.459 16.8641 16.6441 16.9526C16.879 17.0649 17.0395 17.2486 17.1511 17.4797C17.2311 17.6454 17.2718 17.8241 17.3222 17.9994C17.4831 18.5591 17.6414 19.1195 17.801 19.6795C18.0679 20.616 18.3339 21.5527 18.6027 22.4887C18.6832 22.769 18.7831 23.0425 18.9403 23.2909C19.0945 23.5344 19.2918 23.7314 19.5738 23.8158C19.9636 23.9323 20.3432 23.9135 20.6916 23.68C20.8973 23.5422 21.0346 23.3442 21.1457 23.1272C21.2742 22.8761 21.3568 22.6083 21.4335 22.3381C21.634 21.6324 21.8359 20.927 22.0373 20.2215C22.2763 19.3842 22.5144 18.5467 22.7548 17.7098C22.8216 17.477 22.9333 17.269 23.1172 17.1056C23.2735 16.9668 23.4584 16.8907 23.663 16.8573C23.7697 16.8399 23.8772 16.8387 23.9846 16.8384C24.2723 16.8376 24.5599 16.8387 24.8475 16.8375C24.8783 16.8373 24.887 16.8452 24.8867 16.8764C24.8853 17.0786 24.8851 17.2808 24.8869 17.4831C24.8872 17.5163 24.8755 17.5202 24.8472 17.5201C24.5832 17.5192 24.3192 17.5194 24.0553 17.5197C23.7719 17.5199 23.5727 17.6502 23.4544 17.9073C23.3847 18.0589 23.3483 18.2212 23.3019 18.3802C23.0978 19.0808 22.8956 19.782 22.6928 20.4829C22.4823 21.2102 22.2733 21.938 22.0608 22.6648C21.961 23.0062 21.8392 23.3393 21.6594 23.6484C21.4801 23.9568 21.2492 24.2141 20.929 24.3822C20.7251 24.4892 20.5069 24.5489 20.2784 24.5725C20.2265 24.5779 20.1745 24.5828 20.1226 24.5879H19.8704V24.5878Z" fill="white"/>
<path d="M15.7141 15.8061C15.8966 15.8061 16.0792 15.8051 16.2617 15.8063C16.5024 15.8079 16.7396 15.8349 16.97 15.9095C17.3839 16.0435 17.6914 16.3082 17.9168 16.6752C18.0795 16.9402 18.1836 17.2292 18.269 17.5261C18.4512 18.1596 18.634 18.7929 18.8169 19.4262C19.0904 20.3732 19.3644 21.3199 19.6379 22.2669C19.6668 22.3671 19.6925 22.4686 19.7371 22.5634C19.7781 22.6505 19.8295 22.7281 19.9318 22.7536C20.0375 22.7801 20.1371 22.7446 20.2019 22.6557C20.2711 22.5609 20.3027 22.45 20.3346 22.3397C20.5484 21.5998 20.7612 20.8595 20.9748 20.1195C21.2077 19.3131 21.4416 18.5069 21.6745 17.7005C21.7456 17.4548 21.8129 17.2081 21.919 16.9741C22.0374 16.7131 22.1869 16.4735 22.3976 16.276C22.6308 16.0572 22.9075 15.9234 23.2187 15.8571C23.4017 15.8182 23.587 15.806 23.7735 15.806C24.1307 15.806 24.4879 15.8064 24.8451 15.8053C24.8771 15.8052 24.8871 15.8121 24.8868 15.8458C24.8851 16.048 24.8851 16.2502 24.8868 16.4524C24.887 16.4834 24.8775 16.488 24.8495 16.488C24.5081 16.4873 24.1666 16.4837 23.8252 16.4896C23.5799 16.4938 23.3417 16.5396 23.1224 16.6583C22.8597 16.8004 22.6889 17.0234 22.5659 17.2887C22.4655 17.5053 22.41 17.7368 22.3432 17.9646C22.1259 18.7062 21.9088 19.4477 21.6919 20.1895C21.481 20.9111 21.2716 21.6333 21.0595 22.3546C20.9879 22.5978 20.9059 22.8376 20.7758 23.0576C20.6763 23.2259 20.5487 23.3647 20.3635 23.4411C20.2352 23.494 20.1005 23.5102 19.9633 23.5067C19.7526 23.5013 19.5608 23.4434 19.4034 23.2959C19.3038 23.2025 19.2302 23.0901 19.1678 22.9695C19.0461 22.7337 18.9689 22.4815 18.8947 22.2284C18.6791 21.493 18.4652 20.7572 18.2505 20.0217C18.0157 19.2173 17.7813 18.4126 17.5454 17.6085C17.4758 17.3711 17.3779 17.147 17.2212 16.9522C17.0434 16.7312 16.8122 16.5979 16.5381 16.5351C16.3841 16.4999 16.2278 16.487 16.07 16.4872C15.7614 16.4877 15.4528 16.4869 15.1441 16.4882C15.113 16.4883 15.1058 16.4799 15.106 16.4496C15.1074 16.2487 15.1074 16.0477 15.106 15.8468C15.1058 15.8147 15.1131 15.8049 15.1466 15.8052C15.3357 15.8069 15.5248 15.806 15.7139 15.806L15.7141 15.8061Z" fill="white"/>
<path d="M34.0001 19.9704C33.9918 19.957 33.9961 19.9422 33.9963 19.9282C33.9976 19.8141 33.9959 19.6998 33.9853 19.5864C33.9593 19.3062 33.9108 19.0298 33.8361 18.7583C33.7702 18.5186 33.6866 18.2852 33.5805 18.0601C33.4718 17.8293 33.3457 17.6082 33.1996 17.3989C33.0125 17.1308 32.7986 16.8863 32.553 16.6704C32.3095 16.4564 32.0448 16.2727 31.7591 16.1187C31.4911 15.9742 31.2115 15.8585 30.9188 15.7752C30.4959 15.6549 30.0651 15.5914 29.6246 15.6011C29.5723 15.6026 29.52 15.5979 29.4677 15.6037C29.2195 15.6045 28.9731 15.6271 28.7281 15.6664C28.2532 15.7425 27.8023 15.8899 27.3771 16.1153C26.6621 16.4946 26.1088 17.0385 25.7163 17.7463C25.3351 18.4338 25.1653 19.1761 25.1439 19.9565C25.136 20.244 25.1511 20.5305 25.1883 20.816C25.2302 21.1386 25.3023 21.4541 25.4111 21.7606C25.6239 22.3601 25.9481 22.8911 26.3974 23.343C26.7454 23.6928 27.1467 23.9673 27.5942 24.1741C28.1059 24.4106 28.6449 24.5372 29.2063 24.573C29.2911 24.5784 29.3759 24.5831 29.4607 24.5881H29.6971C29.7064 24.5807 29.7174 24.5842 29.7275 24.5842C29.8613 24.584 29.9949 24.5816 30.1283 24.5683C30.3298 24.5482 30.5292 24.5159 30.7262 24.4698C31.1081 24.3805 31.4718 24.2433 31.8156 24.0536C32.1103 23.891 32.3836 23.6987 32.6299 23.4698C32.8263 23.2872 33.0047 23.0878 33.1619 22.8694C33.3476 22.6114 33.503 22.3365 33.6302 22.0457C33.7688 21.7292 33.8643 21.3991 33.9261 21.0593C33.9552 20.8992 33.9775 20.738 33.9879 20.5754C33.9942 20.4759 33.9963 20.3763 33.9961 20.2766C33.9961 20.2639 33.9919 20.2504 33.9999 20.2384V19.9705L34.0001 19.9704ZM33.2658 20.1937C33.2539 20.7927 33.1468 21.3715 32.8899 21.9174C32.5623 22.6137 32.0598 23.1416 31.3726 23.4906C31.05 23.6544 30.7085 23.7622 30.3522 23.8243C29.9846 23.8883 29.6144 23.903 29.2429 23.8777C28.6962 23.8404 28.1751 23.7073 27.6916 23.4439C26.9855 23.0592 26.4898 22.4862 26.181 21.7475C26.0426 21.4162 25.9572 21.0712 25.9129 20.7152C25.8876 20.5119 25.8761 20.3079 25.8748 20.1031C25.8771 19.6181 25.9394 19.1425 26.0949 18.6811C26.243 18.2415 26.4618 17.8414 26.764 17.4885C27.0376 17.1691 27.3637 16.9154 27.7353 16.7195C28.1138 16.5199 28.5171 16.3978 28.9398 16.3392C29.2762 16.2927 29.6142 16.2852 29.9525 16.3152C30.6389 16.376 31.2701 16.59 31.8304 16.9981C32.2545 17.3071 32.5816 17.699 32.823 18.1636C33.0232 18.5486 33.1493 18.9573 33.2134 19.3861C33.2534 19.6541 33.2711 19.9233 33.2657 20.1938L33.2658 20.1937Z" fill="white"/>
<path d="M14.7808 19.2397C14.7039 18.7653 14.5583 18.3137 14.3352 17.8881C13.8703 17.0016 13.1779 16.3577 12.259 15.9609C11.6963 15.718 11.1048 15.6096 10.4934 15.6037C10.435 15.6037 10.3766 15.6035 10.3183 15.6035C10.0543 15.6049 9.79255 15.6299 9.5323 15.6743C9.08604 15.7505 8.66138 15.8903 8.25949 16.0992C7.47525 16.507 6.8876 17.1083 6.48872 17.8956C6.31134 18.2458 6.18505 18.6141 6.10486 18.9979C6.04278 19.2947 6.00546 19.5948 6 19.8983V20.3101C6.00387 20.5319 6.02792 20.7517 6.06295 20.9706C6.1372 21.4342 6.27797 21.8762 6.49212 22.2942C6.7485 22.7946 7.08586 23.2314 7.52056 23.5899C8.30963 24.2407 9.22396 24.5496 10.2393 24.5809C10.3661 24.5809 10.4929 24.5808 10.6197 24.5807C10.7865 24.5791 10.9521 24.5627 11.1174 24.5416C11.4597 24.4978 11.7934 24.4181 12.1159 24.2955C12.8086 24.0321 13.3977 23.6213 13.8645 23.044C14.4911 22.269 14.7949 21.3731 14.843 20.384C14.8616 20.0003 14.8423 19.619 14.7808 19.2396V19.2397ZM13.9046 21.5083C13.7493 21.9743 13.516 22.3964 13.1846 22.761C12.7086 23.2847 12.118 23.6127 11.433 23.7765C11.0103 23.8777 10.5814 23.9042 10.1483 23.8801C9.65637 23.8528 9.18315 23.7479 8.73492 23.5398C8.40342 23.3859 8.10283 23.1858 7.83807 22.9331C7.36802 22.4845 7.06023 21.9398 6.88428 21.3179C6.79152 20.99 6.74589 20.6546 6.7315 20.3143C6.7205 20.0541 6.72865 19.7948 6.75854 19.5366C6.84237 18.8134 7.08475 18.152 7.54168 17.5783C7.92372 17.0985 8.40919 16.7597 8.9811 16.543C9.29608 16.4235 9.62237 16.3533 9.95735 16.3203C10.2402 16.2923 10.5233 16.29 10.806 16.3153C11.5343 16.3802 12.1979 16.6166 12.7774 17.0703C13.1537 17.365 13.4467 17.729 13.6682 18.1515C13.8629 18.5227 13.9886 18.9164 14.056 19.3297C14.0979 19.5867 14.1161 19.8451 14.1179 20.0742C14.1166 20.5835 14.0561 21.053 13.9045 21.5082L13.9046 21.5083Z" fill="white"/>
<path d="M32.7935 18.9935C32.6489 18.4671 32.3949 17.9999 32.0185 17.6027C31.7329 17.3012 31.3959 17.0715 31.0152 16.9066C30.6998 16.77 30.37 16.6885 30.0283 16.6516C29.7993 16.6268 29.5701 16.6225 29.3405 16.634C29.0226 16.6499 28.7107 16.7024 28.4084 16.8034C27.6163 17.0681 27.0178 17.5646 26.6243 18.3035C26.4138 18.6991 26.2902 19.1216 26.2361 19.5659C26.2044 19.8272 26.1979 20.0891 26.2108 20.3516C26.2277 20.6969 26.286 21.035 26.3954 21.3637C26.5432 21.8078 26.7696 22.2065 27.0891 22.5494C27.4602 22.9477 27.9097 23.2242 28.4271 23.3904C28.8468 23.5252 29.2782 23.5709 29.7177 23.5574C30.0084 23.5485 30.2946 23.5116 30.5753 23.4367C31.0968 23.2976 31.5592 23.0492 31.95 22.6747C32.2736 22.3645 32.5096 21.9946 32.6747 21.5794C32.8625 21.1071 32.9371 20.6142 32.937 20.1082C32.9369 19.702 32.8969 19.3705 32.7933 18.9934L32.7935 18.9935ZM32.1862 20.4769C32.1273 21.0345 31.9419 21.5429 31.5813 21.9788C31.2785 22.3449 30.8941 22.5913 30.4433 22.7357C30.123 22.8384 29.7933 22.8733 29.4584 22.8614C28.941 22.8431 28.4605 22.7065 28.0311 22.4098C27.6338 22.1353 27.3531 21.7677 27.1673 21.3248C27.0035 20.934 26.9361 20.525 26.9373 20.1257C26.9368 19.6568 27.0086 19.2244 27.1974 18.8174C27.5571 18.0421 28.1556 17.5566 28.9924 17.3827C29.5535 17.266 30.1086 17.3064 30.642 17.5286C31.1873 17.7557 31.5965 18.135 31.8719 18.6577C32.0422 18.9807 32.1398 19.3256 32.1811 19.6877C32.2111 19.9507 32.214 20.214 32.1862 20.4769H32.1862Z" fill="white"/>
<path d="M13.7564 19.5578C13.7185 19.2489 13.6482 18.9482 13.5344 18.6583C13.336 18.153 13.0389 17.7165 12.6196 17.3685C12.1033 16.9399 11.5038 16.7119 10.8402 16.6469C10.4917 16.6127 10.1435 16.6209 9.7968 16.6752C9.45493 16.7288 9.12762 16.8284 8.81857 16.9844C8.09562 17.3492 7.60192 17.9206 7.30876 18.6704C7.13408 19.117 7.06061 19.5828 7.05602 20.0607C7.05405 20.2918 7.06868 20.5217 7.10244 20.7507C7.16112 21.1486 7.27943 21.527 7.46835 21.8823C7.71745 22.3509 8.06082 22.734 8.50668 23.0243C8.95949 23.319 9.45754 23.4831 9.99252 23.5384C10.3184 23.572 10.6444 23.5681 10.9699 23.5258C11.3663 23.4742 11.7435 23.362 12.0986 23.1772C12.5025 22.9668 12.8448 22.6832 13.1165 22.3169C13.5323 21.7565 13.7309 21.1191 13.7781 20.4298C13.798 20.1389 13.792 19.848 13.7564 19.5579V19.5578ZM12.7739 21.4403C12.4467 22.1244 11.9139 22.5644 11.1849 22.7671C10.8675 22.8554 10.5428 22.8766 10.2147 22.8559C9.81491 22.8308 9.43651 22.731 9.08523 22.5355C8.58647 22.2578 8.23828 21.8473 8.01859 21.3241C7.90954 21.0645 7.84248 20.7939 7.8118 20.5139C7.76119 20.0516 7.78752 19.5953 7.9237 19.1488C8.0613 18.6977 8.29577 18.305 8.64515 17.9853C8.99105 17.6688 9.39681 17.4688 9.85643 17.3783C10.1492 17.3206 10.4445 17.3088 10.7409 17.3396C11.3366 17.4015 11.8566 17.631 12.2831 18.0551C12.6254 18.3955 12.8409 18.8096 12.9583 19.2755C13.0297 19.559 13.0551 19.7995 13.0554 20.1045C13.0565 20.5697 12.9757 21.0182 12.7738 21.4403H12.7739Z" fill="white"/>
</svg>

<svg xmlns="http://www.w3.org/2000/svg" width="40" height="40" fill="none" viewBox="0 0 40 40"><rect width="40" height="40" fill="#4c2a86" rx="8"/><path fill="#fff" d="M19.87 24.588c-.089-.012-.179-.016-.268-.03a1.67 1.67 0 0 1-1.056-.603 3 3 0 0 1-.472-.863c-.114-.302-.197-.614-.287-.924l-.462-1.598-.717-2.476a1 1 0 0 0-.182-.366.58.58 0 0 0-.453-.207q-.413-.005-.824 0c-.032 0-.044-.005-.043-.042q.003-.3 0-.603c0-.031.009-.039.04-.039l.914.001c.202 0 .399.026.584.115.235.112.396.296.507.527.08.165.12.344.171.52q.241.84.479 1.68l.802 2.809c.08.28.18.553.337.802.154.243.352.44.634.525.39.116.77.098 1.118-.136.205-.138.343-.336.454-.553a4.3 4.3 0 0 0 .287-.789l.604-2.117.718-2.511c.067-.233.178-.441.362-.604a1.05 1.05 0 0 1 .546-.249c.107-.017.214-.018.322-.019h.863c.03 0 .039.007.039.038q-.003.304 0 .607c0 .033-.012.037-.04.037h-.792a.615.615 0 0 0-.6.387c-.07.152-.107.314-.153.473l-.61 2.103q-.314 1.091-.631 2.182a4.4 4.4 0 0 1-.402.983c-.179.309-.41.566-.73.734a1.8 1.8 0 0 1-.65.19l-.156.016z"/><path fill="#fff" d="M15.714 15.806h.548c.24.002.478.029.708.104.414.134.721.398.947.765.162.265.267.554.352.851l.548 1.9.82 2.84c.03.101.055.203.1.297.041.088.093.165.195.19a.25.25 0 0 0 .27-.097c.07-.095.1-.206.133-.316l.64-2.22.7-2.42c.07-.245.138-.492.244-.726.118-.26.268-.5.479-.698.233-.219.51-.353.82-.419a2.7 2.7 0 0 1 .555-.051h1.072c.032 0 .042.006.042.04q-.003.303 0 .606c0 .031-.01.036-.038.036-.34 0-.682-.004-1.024.002-.245.004-.483.05-.703.168-.262.142-.433.365-.556.63-.1.217-.156.449-.223.677l-.651 2.224q-.315 1.083-.633 2.166a3 3 0 0 1-.283.703.87.87 0 0 1-.413.383 1 1 0 0 1-.4.066.82.82 0 0 1-.56-.211 1.2 1.2 0 0 1-.235-.326 4 4 0 0 1-.273-.742l-.645-2.206q-.351-1.208-.705-2.413a1.9 1.9 0 0 0-.324-.657 1.2 1.2 0 0 0-.683-.417 2 2 0 0 0-.468-.048l-.926.001c-.031 0-.038-.008-.038-.038v-.603c0-.032.007-.042.04-.042q.285.002.568.001M34 19.97c-.008-.013-.004-.028-.004-.042q.004-.171-.01-.342a5 5 0 0 0-.15-.828 4.3 4.3 0 0 0-.636-1.36 4 4 0 0 0-.647-.728 4.3 4.3 0 0 0-1.634-.895 4.4 4.4 0 0 0-1.294-.174c-.053.002-.105-.003-.157.003a5 5 0 0 0-.74.062 4.3 4.3 0 0 0-1.35.45 4 4 0 0 0-1.662 1.63c-.38.688-.55 1.43-.572 2.21q-.012.432.044.86.061.485.223.945a4.1 4.1 0 0 0 2.183 2.413c.512.237 1.05.363 1.612.399l.255.015h.236c.01-.007.02-.004.03-.004a4 4 0 0 0 1-.114 4.24 4.24 0 0 0 1.903-1 4 4 0 0 0 .532-.6q.278-.389.468-.824a4.4 4.4 0 0 0 .296-.987 4 4 0 0 0 .07-.782c0-.013-.004-.027.004-.039zm-.734.224c-.012.599-.12 1.178-.376 1.723a3.28 3.28 0 0 1-1.517 1.574 3.6 3.6 0 0 1-1.02.333 4.6 4.6 0 0 1-1.11.054 3.7 3.7 0 0 1-1.551-.434c-.707-.385-1.202-.958-1.511-1.697a4 4 0 0 1-.268-1.032 5 5 0 0 1-.038-.612c.002-.485.064-.96.22-1.422.148-.44.367-.84.669-1.193q.413-.477.971-.768c.379-.2.782-.322 1.205-.38a4.5 4.5 0 0 1 1.012-.025c.687.061 1.318.275 1.878.683.425.31.752.701.993 1.166.2.385.326.793.39 1.222q.06.402.053.808M14.78 19.24a4.4 4.4 0 0 0-.445-1.352 4.13 4.13 0 0 0-2.076-1.927 4.5 4.5 0 0 0-1.766-.357h-.175a5 5 0 0 0-.786.07q-.669.114-1.273.425a4.02 4.02 0 0 0-1.77 1.797q-.266.526-.384 1.102c-.062.297-.1.597-.105.9v.412c.004.222.028.442.063.66q.11.696.43 1.324c.255.5.593.937 1.028 1.296.789.65 1.703.96 2.718.99h.38c.168 0 .333-.017.498-.038q.515-.064.999-.247a4.06 4.06 0 0 0 1.749-1.251c.626-.775.93-1.67.978-2.66q.03-.576-.062-1.144m-.875 2.268a3.5 3.5 0 0 1-.72 1.253 3.36 3.36 0 0 1-1.752 1.015 4.4 4.4 0 0 1-1.285.104 3.8 3.8 0 0 1-1.413-.34 3.3 3.3 0 0 1-.897-.607 3.5 3.5 0 0 1-.954-1.615 4.3 4.3 0 0 1-.153-1.004q-.016-.39.028-.777c.083-.724.326-1.385.783-1.959a3.3 3.3 0 0 1 1.44-1.035c.314-.12.64-.19.975-.223q.425-.042.849-.005c.728.065 1.392.302 1.971.755.377.295.67.659.891 1.081.195.372.32.765.388 1.179.042.257.06.515.062.744-.001.51-.062.979-.213 1.434"/><path fill="#fff" d="M32.794 18.994a3.2 3.2 0 0 0-.775-1.391 3 3 0 0 0-1.004-.696 3.4 3.4 0 0 0-.987-.255 4.4 4.4 0 0 0-.687-.018 3.5 3.5 0 0 0-.933.17 3.04 3.04 0 0 0-1.784 1.5 3.6 3.6 0 0 0-.388 1.262 4.6 4.6 0 0 0-.025.786c.017.345.075.683.184 1.012.148.444.375.842.694 1.185.371.399.82.675 1.338.841.42.135.851.18 1.29.167.291-.008.578-.045.858-.12.522-.14.984-.388 1.375-.762.324-.31.56-.68.725-1.096a3.9 3.9 0 0 0 .262-1.47c0-.407-.04-.739-.144-1.116m-.608 1.483c-.059.558-.244 1.066-.605 1.502a2.4 2.4 0 0 1-1.138.757 2.9 2.9 0 0 1-.985.125 2.6 2.6 0 0 1-1.427-.451 2.4 2.4 0 0 1-.864-1.085c-.164-.391-.23-.8-.23-1.2 0-.468.072-.9.26-1.308.36-.775.959-1.26 1.795-1.434a2.75 2.75 0 0 1 1.65.146q.817.343 1.23 1.129c.17.323.268.668.31 1.03q.045.395.004.789m-18.429-.918a3.7 3.7 0 0 0-.222-.9 3.1 3.1 0 0 0-.914-1.29c-.517-.428-1.116-.656-1.78-.721a4 4 0 0 0-1.043.028c-.342.054-.67.153-.978.31-.723.364-1.217.936-1.51 1.685a3.9 3.9 0 0 0-.253 1.39 4.5 4.5 0 0 0 .046.69c.06.399.177.777.366 1.132.25.469.593.852 1.039 1.142.452.295.95.46 1.486.514q.488.051.977-.012a3.4 3.4 0 0 0 1.129-.349c.403-.21.746-.494 1.018-.86.415-.56.614-1.198.661-1.887q.031-.437-.022-.872m-.982 1.882c-.327.684-.86 1.124-1.59 1.327a2.9 2.9 0 0 1-.97.089 2.6 2.6 0 0 1-1.129-.32 2.4 2.4 0 0 1-1.066-1.212 2.9 2.9 0 0 1-.207-.81 3.4 3.4 0 0 1 .112-1.365c.137-.451.372-.844.721-1.164a2.47 2.47 0 0 1 1.211-.607q.44-.086.885-.038a2.5 2.5 0 0 1 1.542.715c.342.34.558.755.675 1.22.072.284.097.524.097.83.002.465-.08.913-.281 1.335"/></svg>
